logos/zig.svg

<?xml version="1.0" encoding="UTF-8"?>
<svg width="512px" height="181px" viewBox="0 0 512 181" version="1.1" xmlns="http://www.w3.org/2000/svg" preserveAspectRatio="xMidYMid">
    <title>Zig</title>
    <g>
        <path d="M193.890432,0 L91.0341429,122.797273 L149.941934,122.797273 L125.382479,151.234537 L67.2153497,151.234537 L3.87780863,180.964403 L106.935743,56.8745266 L47.8263065,56.8745266 L72.3857612,28.4372633 L130.552891,28.4372633 L193.890432,0 Z M59.4597324,28.4372633 L36.1928806,56.8745266 L28.4372633,56.8745266 L28.4372633,122.797273 L40.0706892,122.797273 L15.5112345,151.234537 L0,151.234537 L0,28.4372633 L59.4597324,28.4372633 Z M197.76824,28.4372633 L197.76824,151.234537 L137.015905,151.234537 L161.57536,122.797273 L169.330977,122.797273 L169.330977,58.1671295 L157.697551,58.1671295 L182.257006,28.4372633 L197.76824,28.4372633 Z" fill="#F7A41D"></path>
        <path d="M461.717748,27.9202222 C480.201969,27.9202222 499.461752,35.029538 512,46.0166625 L495.196163,65.4057056 C486.018682,57.2623075 473.480434,52.4796768 461.717748,52.4796768 C439.743499,52.4796768 422.681141,69.154254 422.681141,90.6114618 C422.681141,112.32719 439.872759,128.872507 461.847008,128.872507 C469.096714,128.872507 478.098499,125.99409 486.020098,121.961244 L486.018682,104.700833 L447.240596,86.6043928 L509.285534,86.6043928 L509.285534,137.015905 C496.100985,146.451906 478.263065,152.52714 460.554405,152.52714 C423.068922,152.52714 394.502398,125.641 394.502398,90.0944206 C394.502398,54.806362 423.585963,27.9202222 461.717748,27.9202222 Z M336.076748,28.4372633 L336.076748,47.8263065 L267.568796,127.967685 L337.369351,127.967685 L337.369351,151.234537 L227.498107,151.234537 L227.498107,133.138096 L296.006059,51.7041151 L228.790709,51.7041151 L228.790709,28.4372633 L336.076748,28.4372633 Z M380.025246,28.4372633 L380.025246,151.234537 L351.587983,151.234537 L351.587983,28.4372633 L380.025246,28.4372633 Z" fill="#121212"></path>
    </g>
</svg>

<svg preserveAspectRatio="xMidYMid" viewBox="0 0 512 181" xmlns="http://www.w3.org/2000/svg">
  <path fill="#F7A41D" d="M193.89 0 91.034 122.797h58.908l-24.56 28.438H67.215l-63.337 29.73 103.058-124.09h-59.11l24.56-28.438h58.167L193.89 0ZM59.46 28.437 36.193 56.875h-7.756v65.922h11.634l-24.56 28.438H0V28.437h59.46Zm138.308 0v122.798h-60.752l24.56-28.438h7.755v-64.63h-11.633l24.559-29.73h15.511Z"/>
  <path fill="#121212" d="M461.718 27.92c18.484 0 37.744 7.11 50.282 18.097l-16.804 19.389c-9.177-8.144-21.716-12.926-33.478-12.926-21.975 0-39.037 16.674-39.037 38.131 0 21.716 17.192 38.262 39.166 38.262 7.25 0 16.251-2.879 24.173-6.912l-.001-17.26-38.778-18.097h62.045v50.412c-13.185 9.436-31.023 15.511-48.732 15.511-37.485 0-66.052-26.886-66.052-62.433 0-35.288 29.084-62.174 67.216-62.174Zm-125.641.517v19.39l-68.508 80.14h69.8v23.268H227.5v-18.097l68.507-81.434h-67.215V28.437h107.286Zm43.948 0v122.798h-28.437V28.437h28.437Z"/>
</svg>
